dist/svgs/rss.svg

<svg xmlns="http://www.w3.org/2000/svg" viewBox="0 0 512 512"><path d="M27 24q96 0 180 36 83 36 145 99 63 63 99 147 19 42 27.5 86.5T487 485h-84q0-78-29-147-30-70-81-119-49-51-120-81-69-29-146-29V24zm0 168q31 0 60 6t56 17q26 11 49 26.5t43 35.5 35 43.5 27 50.5q24 53 24 114h-85q0-45-16-81-9-20-19.5-37T176 336q-29-27-66-45-20-8-40.5-12T27 275v-83zm0 168q27 0 50 9 11 5 21 11.5t19 14.5q17 19 27 40 8 24 8 50H27V360z"/></svg>

<?xml version="1.0" encoding="UTF-8" standalone="no"?><svg   xmlns:svg="http://www.w3.org/2000/svg"   xmlns="http://www.w3.org/2000/svg"   version="1.1"   width="512"   height="512"   viewBox="0 0 512 512">  <path     d="M27 24Q123 24 207 60Q290 96 352 159Q415 222 451 306Q470 348 478.5 392.5T487 485H403Q403 407 374 338Q344 268 293 219Q244 168 173 138Q104 109 27 109V24zM27 192Q58 192 87 198T143 215Q169 226 192 241.5T235 277T270 320.5T297 371Q321 424 321 485H236Q236 440 220 404Q211 384 200.5 367T176 336Q147 309 110 291Q90 283 69.5 279T27 275V192zM27 360Q54 360 77 369Q88 374 98 380.5T117 395Q134 414 144 435Q152 459 152 485H27V360z"     id="rss" /></svg>
